!!!OTL: Adelgunde (119), S. 278
!!!id: T0284
**kern
*clefG2
*k[]
*G:
{8b
=1
4b
4b
4b
4b
=2
8b
8b
8b
8b
8b
8a
8a}
=3
{8a
=4
4cc
4cc
4cc
4cc
=5
8cc
8b
8cc
8dd
8cc
8b
4a}
=6
{2dd
8ee
8dd
8cc
8b
=7
4a}
4r
=8
{8cc
8cc
8cc
8dd
=9
4ee
8dd
8cc
8dd
8b
8b
8b
=10
2b}
4.r
==
*-
!!!minrhy: 8
!!!meters: 4/4 ]  ZZ[4
!!!cut: Adelgunde (119), S. 278
!!!reg: Luxemburg
!!!trd: Singendes Volk, Esch-Alzette 1937 posth.
!!!rhy1: X  X_X_X_X_  XXXXXXX
!!!rhy2: X  X_X_X_X_  XXXXXXX_
!!!key: T0284  08  G 4/4 ]  ZZ[4
!!!mod: PENTATONIK ]  AMBITUS[5
!!!kad: 2223
!!!akz: 3333_4444_562_4653_
!!!fot: 'a__as'b__c__
!!!for: 'a__av_b__c__
!!!fok: '-__^__\__^d_
!! PHRAS[VORWIEGEND AUFTAKTIG]
!!!fkt: Liebeslieder
!!!bem: Junglinster, J.P. Welter (Lehrer), um 1900
!! THILL, Mathias:
!! PR[10] 2K[0] 2G[10] 3K[17] 3G[0] 4A[10] 4Ü[0] 5A[0] 6K[0] 6G[3]
!! 7K[0] 7G[0] 8A[0] MEHR[0] SI[41] ABS[29] SR[10] SP[31]
!! ST[8] 2k[0] 2g[21] 3k[28] 3g[0] 4d[0] 4ü[0] 5d[0] 6k[0] 6g[0]
!! 7k[0] 7g[0] 8d[0] mehr[0] si[48] dm[-7] sr[21] sp[28]
!! 1F[93] 2F[7] 3F[0] 4F[0] LF[0] 2P[0] 3P[0] 4P[0] TRI[0] DF[2] AB[30]
!! TF[0] U3K[0] U3[0] U4[0] U4Ü[0] U5[3] U6K[0] U6[30] U7K[0] U7[0]
!! N1[40] N2K[0] N2[23] N3K[0] N3[0] N4[0] N4Ü[0] N5[0] N6K[0] N6[3]
!!!n7k: 0] N7[0] O1[0] O2K[0] O2[0] O3K[0] O3[0] HÖ[0
